Numix-Light/scalable/actions/document-open-symbolic.svg

<?xml version="1.0" encoding="UTF-8" standalone="no"?>
<svg
   xmlns:dc="http://purl.org/dc/elements/1.1/"
   xmlns:cc="http://creativecommons.org/ns#"
   xmlns:rdf="http://www.w3.org/1999/02/22-rdf-syntax-ns#"
   xmlns:svg="http://www.w3.org/2000/svg"
   xmlns="http://www.w3.org/2000/svg"
   xmlns:sodipodi="http://sodipodi.sourceforge.net/DTD/sodipodi-0.dtd"
   xmlns:inkscape="http://www.inkscape.org/namespaces/inkscape"
   viewBox="0 0 16 16"
   id="svg2473"
   version="1.1"
   inkscape:version="0.91 r"
   sodipodi:docname="document-open-symbolic.svg">
  <metadata
     id="metadata2485">
    <rdf:RDF>
      <cc:Work
         rdf:about="">
        <dc:format>image/svg+xml</dc:format>
        <dc:type
           rdf:resource="http://purl.org/dc/dcmitype/StillImage" />
      </cc:Work>
    </rdf:RDF>
  </metadata>
  <defs
     id="defs2483" />
  <sodipodi:namedview
     pagecolor="#ffffff"
     bordercolor="#666666"
     borderopacity="1"
     objecttolerance="10"
     gridtolerance="10"
     guidetolerance="10"
     inkscape:pageopacity="0"
     inkscape:pageshadow="2"
     inkscape:window-width="1920"
     inkscape:window-height="1056"
     id="namedview2481"
     showgrid="true"
     inkscape:zoom="14.75"
     inkscape:cx="8"
     inkscape:cy="8"
     inkscape:window-x="0"
     inkscape:window-y="24"
     inkscape:window-maximized="1"
     inkscape:current-layer="svg2473">
    <inkscape:grid
       type="xygrid"
       id="grid4137" />
  </sodipodi:namedview>
  <path
     style="fill:#353535"
     inkscape:connector-curvature="0"
     id="path2477"
     d="M 0.53125,5 C 0.24212,5 0,5.2421 0,5.5313 l 0,9.9375 C 0,15.7673 0.23264,16 0.53125,16 l 13.8125,0 c 0.2986,0 0.53125,-0.2326 0.53125,-0.5312 L 16,10.5529 c 0,-0.2891 -0.24212,-0.5312 -0.53125,-0.5312 L 3.875,10.0217 3,13.5 C 3,13.777 2.777,14 2.5,14 2.223,14 2,13.777 2,13.5 L 2,8.5034 c 0,-0.277 0.223,-0.5 0.5,-0.5 l 0.46615,0 0,-3.0034 z" />
  <rect
     style="opacity:1;fill:none;fill-opacity:1;fill-rule:nonzero;stroke:#353535;stroke-width:0.99999988;stroke-linecap:butt;stroke-linejoin:miter;stroke-miterlimit:4;stroke-dasharray:none;stroke-dashoffset:0;stroke-opacity:1"
     id="rect4135"
     width="10"
     height="11"
     x="4.5"
     y="2.5" />
</svg>

<svg xmlns="http://www.w3.org/2000/svg" viewBox="0 0 16 16">
 <path d="m 0.531 5 c -0.289 0 -0.531 0.242 -0.531 0.531 l 0 9.938 c 0 0.299 0.233 0.531 0.531 0.531 l 13.813 0 c 0.299 0 0.531 -0.233 0.531 -0.531 l 1.125 -4.916 c 0 -0.289 -0.242 -0.531 -0.531 -0.531 l -11.594 0 -0.875 3.478 c 0 0.277 -0.223 0.5 -0.5 0.5 -0.277 0 -0.5 -0.223 -0.5 -0.5 l 0 -4.997 c 0 -0.277 0.223 -0.5 0.5 -0.5 l 0.466 0 0 -3 z" style="fill:#353535"/>
 <rect width="10" height="11" x="4.5" y="2.5" style="stroke-dasharray:none;stroke-opacity:1;fill:none;opacity:1;stroke-miterlimit:4;fill-opacity:1;stroke:#353535;fill-rule:nonzero;stroke-linecap:butt;stroke-linejoin:miter;stroke-width:1;stroke-dashoffset:0"/>
</svg>
